build/img/logo-footer.svg

<svg width="81" height="73" viewBox="0 0 81 73" fill="none" xmlns="http://www.w3.org/2000/svg">
<path d="M57.2731 23.3968L50.0341 31.5277C49.5733 32.0182 49.0084 32.4047 48.4138 32.6426H52.0854C53.3637 32.6426 54.5826 32.1223 55.4299 31.2156L62.6541 23.1144C62.7284 23.04 62.8176 22.9657 62.9068 22.9062H58.388C57.9866 22.9062 57.615 23.0549 57.3326 23.3373L57.2731 23.3968Z" fill="#393D5D"/>
<path d="M32.5237 25.894V53.3043C32.5237 54.3597 33.3858 55.2218 34.4412 55.2218C35.4966 55.2218 36.3588 54.3597 36.3588 53.3043V25.894C36.3588 25.8791 36.3588 25.8643 36.3588 25.8494V25.8345C36.3736 25.3292 36.4925 24.8238 36.7304 24.3778C37.0723 23.7089 37.6371 23.1886 38.2912 22.8914H35.5561C33.8764 22.8914 32.5237 24.244 32.5237 25.894Z" fill="#393D5D"/>
<path d="M17.4806 36.2399C19.6508 40.6992 23.0399 44.4005 27.3061 46.9275V43.7168C27.3061 42.8397 26.9196 42.0073 26.2655 41.4425C21.5386 37.3696 18.8184 31.4535 18.8184 25.2252C18.8184 19.5023 21.0778 14.1362 25.1656 10.0782C29.2533 6.03502 34.6492 3.8202 40.372 3.87966C44.7868 3.90939 49.0084 5.29179 52.5759 7.83364C56.0542 10.316 58.6704 13.72 60.1717 17.6889C61.123 17.6591 61.9852 17.1537 62.4757 16.3362C62.9811 15.4889 63.0257 14.4632 62.5649 13.5862C60.1568 8.97821 56.292 5.12828 51.6691 2.76481C48.1016 0.936469 44.2071 0 40.1937 0C38.7221 0 37.2356 0.133781 35.7343 0.386479C31.1114 1.1743 26.4291 3.76074 22.5345 7.65526C18.6549 11.5498 16.0833 16.247 15.3103 20.8699C14.4333 26.1914 15.1766 31.4981 17.4806 36.2399Z" fill="#393D5D"/>
<path d="M39.6438 22.8767C38.5438 22.8767 37.5478 23.4564 37.0276 24.4078L43.8356 31.2157C44.6531 32.1225 45.7234 32.6279 46.8531 32.6279C47.849 32.6279 48.8152 32.2563 49.5733 31.5576L41.7248 23.7091C41.1599 23.174 40.4316 22.8767 39.6438 22.8767Z" fill="#393D5D"/>
<path d="M63.8881 22.8914C63.5017 22.8914 63.13 23.04 62.8625 23.3076L62.803 23.367L61.5544 24.7643V25.2251C61.5544 35.5709 54.1816 44.4153 44.0142 46.2436C42.5872 46.4963 41.5615 47.7449 41.5615 49.1868V50.4057C47.983 50.0638 53.9735 47.3139 58.4328 42.6464C62.9368 37.9343 65.4341 31.7358 65.4341 25.2102C65.4341 24.9278 65.4341 24.6156 65.4192 24.2589C65.3449 23.5008 64.676 22.8914 63.8881 22.8914Z" fill="#393D5D"/>
<path d="M10.0633 63.9623C9.88495 61.4651 7.87823 59.4583 5.39585 59.2948C3.98371 59.1908 2.63103 59.6664 1.60538 60.6326C0.594584 61.584 0 62.9218 0 64.3042V72.0635C0 72.5689 0.416208 72.9851 0.921604 72.9851H0.995927V67.3366C1.94726 68.6149 3.43372 69.3582 5.0391 69.3582C6.43637 69.3582 7.77418 68.7784 8.72551 67.7528C9.69171 66.7271 10.1674 65.3893 10.0633 63.9623ZM5.30666 68.3622C4.14722 68.4366 3.00265 68.0055 2.18509 67.1879C1.36754 66.3704 0.936469 65.2258 1.01079 64.0664C1.14457 62.0448 2.76481 60.4245 4.7864 60.2908C4.87559 60.2908 4.96477 60.2759 5.0391 60.2759C6.10935 60.2759 7.135 60.6921 7.90796 61.4651C8.72551 62.2826 9.15659 63.4272 9.08226 64.5866C8.94848 66.6082 7.32824 68.2285 5.30666 68.3622Z" fill="#393D5D"/>
<path d="M22.6684 64.3191C22.6684 62.9218 22.0887 61.584 21.063 60.6326C20.0374 59.6664 18.6847 59.1908 17.2725 59.2948C14.7753 59.4732 12.7686 61.4799 12.6051 63.9623C12.501 65.3745 12.9915 66.7271 13.9429 67.7528C14.8942 68.7636 16.232 69.3582 17.6293 69.3582C19.2198 69.3582 20.7211 68.6001 21.6725 67.3366V69.1649H21.7468C22.2522 69.1649 22.6684 68.7487 22.6684 68.2433V64.3785V64.3488V64.3191ZM21.6576 64.5866C21.5238 66.6082 19.9036 68.2285 17.882 68.3622C16.7225 68.4366 15.578 68.0055 14.7604 67.1879C13.9429 66.3704 13.5118 65.2258 13.5861 64.0664C13.7199 62.0448 15.3401 60.4245 17.3617 60.2908C17.4509 60.2908 17.5401 60.2759 17.6144 60.2759C18.6847 60.2759 19.7103 60.6921 20.4833 61.4651C21.3008 62.2826 21.7319 63.4272 21.6576 64.5866Z" fill="#393D5D"/>
<path d="M50.4801 64.1405C50.3909 61.45 48.1463 59.2798 45.441 59.2798C43.8504 59.2798 42.3491 60.0379 41.3978 61.3014V59.4879H41.3235C40.8181 59.4879 40.4019 59.9041 40.4019 60.4095V68.2431C40.4019 68.7485 40.8181 69.1647 41.3235 69.1647H41.3978V64.3932C41.3978 62.2973 43.1369 60.4095 45.1883 60.2906C46.318 60.2163 47.3882 60.6027 48.2058 61.3757C49.0233 62.1487 49.4841 63.1892 49.4841 64.3189V69.1647H49.5584C50.0638 69.1647 50.4801 68.7485 50.4801 68.2431V64.1405Z" fill="#393D5D"/>
<path d="M53.1113 65.4041C53.1113 65.4338 53.1262 65.4635 53.1262 65.4932L53.1411 65.5527H53.1559C53.1411 65.5081 53.1262 65.4635 53.1113 65.4041Z" fill="#393D5D"/>
<path d="M62.9516 63.2634C62.4165 60.8107 60.2165 59.1459 57.6896 59.3094C55.1923 59.4729 53.1707 61.4796 52.9924 63.9769C52.9626 64.4526 52.9924 64.9134 53.0964 65.3742L53.1559 65.389H53.1707C53.2005 65.389 53.2153 65.4039 53.2451 65.4039C53.3194 65.4188 53.3937 65.4336 53.468 65.4336C53.6018 65.4336 53.7505 65.4336 53.914 65.4188C53.9586 65.4188 54.0032 65.4039 54.0329 65.4039C54.0478 65.4039 54.0626 65.4039 54.0775 65.4039H54.1072C54.018 65.062 53.9586 64.7053 53.9586 64.3485C53.9586 64.1553 53.9734 63.9769 54.0032 63.7837H62.5206C62.6395 63.7837 62.7584 63.7242 62.8327 63.635C62.9516 63.5161 62.9814 63.3823 62.9516 63.2634ZM54.3153 62.758C54.9545 61.2567 56.3964 60.2905 58.0315 60.2905C59.6666 60.2905 61.1233 61.2567 61.7476 62.758H54.3153Z" fill="#393D5D"/>
<path d="M53.8992 65.5526H53.8843C53.81 65.5526 53.7356 65.5675 53.6762 65.5675C53.6167 65.5675 53.587 65.5675 53.5424 65.5824H53.5275H53.5127C53.4235 65.5526 53.3343 65.5378 53.2451 65.5378C53.2748 65.6418 53.3046 65.7459 53.3492 65.8499C53.81 67.1134 54.7613 68.1242 56.0545 68.7039C57.4369 69.3431 59.0572 69.3877 60.4842 68.8377C61.376 68.4958 62.1639 67.931 62.7287 67.2175C62.8774 67.0391 62.922 66.8161 62.8774 66.5931C62.8328 66.3702 62.699 66.1769 62.4909 66.058C62.0152 66.9945 61.1828 67.7229 60.1423 68.1093C57.8531 68.9864 55.2072 67.9756 54.2559 65.8648C54.2113 65.7459 54.1519 65.6269 54.1073 65.4932H54.0775C54.0329 65.5378 53.9735 65.5378 53.8992 65.5526Z" fill="#393D5D"/>
<path d="M53.4978 65.5969H53.5126H53.5275C53.5721 65.5969 53.6018 65.5821 53.6613 65.5821C53.7207 65.5672 53.7951 65.5672 53.8694 65.5672H53.8842C53.9586 65.5523 54.018 65.5375 54.0775 65.5375H54.1072C54.0923 65.5077 54.0923 65.4929 54.0775 65.4631C54.0329 65.4631 53.9883 65.478 53.9437 65.478C53.9288 65.478 53.8991 65.4929 53.8842 65.4929C53.8099 65.4929 53.7207 65.5077 53.6613 65.5226C53.6167 65.5226 53.5721 65.5226 53.5275 65.5375C53.4383 65.5077 53.3342 65.4929 53.2153 65.4929C53.2153 65.5226 53.2302 65.5375 53.2302 65.5672C53.3194 65.5523 53.4086 65.5672 53.4978 65.5969Z" fill="#393D5D"/>
<path d="M53.6463 65.5079C53.7207 65.4931 53.795 65.4782 53.8693 65.4782C53.8842 65.4782 53.9139 65.4634 53.9288 65.4634C53.7504 65.4782 53.6018 65.4931 53.468 65.4782C53.3788 65.4782 53.2896 65.4634 53.1855 65.4485V65.4634C53.3045 65.4634 53.4085 65.4782 53.4977 65.5079C53.5572 65.5079 53.6018 65.5079 53.6463 65.5079Z" fill="#393D5D"/>
<path d="M53.0962 65.3591L53.1111 65.4037C53.1111 65.3889 53.1111 65.374 53.0962 65.3591Z" fill="#393D5D"/>
<path d="M54.1668 65.5229H54.137C54.1816 65.6418 54.2262 65.7608 54.2708 65.8797C55.2222 67.9756 57.8234 68.9715 60.0977 68.1094C61.1828 67.6931 61.9855 66.9351 62.4463 66.0283C62.9071 66.281 63.0409 66.8607 62.7288 67.2621C62.1639 67.9607 61.4058 68.5256 60.4693 68.8972C57.6005 69.9972 54.3005 68.6445 53.2898 65.8797C53.2452 65.7756 53.2154 65.6567 53.1857 65.5526H53.1411C53.1708 65.6716 53.2006 65.7756 53.2452 65.8945C53.706 67.1729 54.687 68.1985 55.9802 68.7931C56.7383 69.135 57.5708 69.3134 58.3883 69.3134C59.0869 69.3134 59.8004 69.1796 60.4693 68.9269C61.3761 68.585 62.1639 68.0053 62.7436 67.2918C62.9071 67.0986 62.9666 66.8459 62.9071 66.608C62.8625 66.3553 62.6842 66.1324 62.4463 65.9986L62.4166 65.9837L62.4017 66.0134C61.9409 66.9499 61.1085 67.6783 60.0829 68.0648C57.8235 68.9269 55.237 67.931 54.3005 65.8648C54.2411 65.731 54.1816 65.5824 54.137 65.404L54.1222 65.3743C54.1222 65.3891 54.137 65.4189 54.137 65.4337L54.1668 65.5229Z" fill="#393D5D"/>
<path d="M53.4827 65.4189C53.4084 65.4189 53.3341 65.404 53.2598 65.3891C53.349 65.3891 53.4381 65.404 53.5273 65.4337C53.5719 65.4337 53.6016 65.4189 53.6462 65.4189C53.7057 65.404 53.78 65.404 53.8692 65.3891C53.8989 65.3891 53.9138 65.3743 53.9287 65.3743C53.7652 65.4189 53.6165 65.4189 53.4827 65.4189Z" fill="#393D5D"/>
<path d="M54.0625 65.3891C54.0625 65.404 54.0625 65.4189 54.0774 65.4189C54.0922 65.4189 54.1071 65.4189 54.122 65.4189C54.1368 65.4486 54.1517 65.4932 54.1517 65.5229H54.1814L54.1517 65.4337C54.1517 65.4189 54.1368 65.3891 54.1368 65.3743H54.1071C54.0922 65.3891 54.0774 65.3891 54.0625 65.3891Z" fill="#393D5D"/>
<path d="M53.1559 65.4039C53.1708 65.4039 53.1856 65.4039 53.2005 65.4039C53.2005 65.3891 53.2005 65.3742 53.1856 65.3593H53.1708L53.1113 65.3445C53.1113 65.3593 53.1113 65.3742 53.1262 65.3891V65.4039C53.1411 65.4485 53.1559 65.4931 53.1559 65.5377H53.2005C53.1708 65.4931 53.1559 65.4485 53.1559 65.4039Z" fill="#393D5D"/>
<path d="M53.4826 65.4484C53.6759 65.4484 53.8691 65.4335 54.0772 65.4186C54.0772 65.4038 54.0772 65.3889 54.0623 65.3889C54.0178 65.3889 53.9732 65.4038 53.9434 65.4038C53.9286 65.4038 53.8988 65.4038 53.884 65.4186C53.7948 65.4186 53.7205 65.4335 53.661 65.4484C53.6164 65.4484 53.5718 65.4484 53.5421 65.4632C53.4529 65.4335 53.3637 65.4186 53.2745 65.4186C53.2448 65.4186 53.2299 65.4038 53.2002 65.4038C53.2002 65.4186 53.2002 65.4335 53.2151 65.4484C53.2894 65.4335 53.3786 65.4484 53.4826 65.4484Z" fill="#393D5D"/>
<path d="M54.2409 65.8946C55.1923 68.0054 57.8233 69.0162 60.1273 68.1392C61.1678 67.7378 61.9854 67.0094 62.4759 66.0878C62.684 66.2068 62.8178 66.4 62.8624 66.623C62.907 66.8459 62.8475 67.0689 62.7137 67.2473C62.134 67.9608 61.361 68.5256 60.4692 68.8675C59.0422 69.4175 57.4219 69.358 56.0395 68.7337C54.7612 68.154 53.795 67.1284 53.3342 65.8797C53.3045 65.7757 53.2599 65.6716 53.2301 65.5676C53.2153 65.5676 53.2153 65.5676 53.2004 65.5676H53.1855C53.2153 65.6716 53.245 65.7905 53.2896 65.8946C54.2855 68.6594 57.6003 70.0121 60.4692 68.9121C61.4056 68.5554 62.1786 67.9756 62.7286 67.277C63.0556 66.8757 62.9218 66.2959 62.4462 66.0432C61.9854 66.95 61.1827 67.7081 60.0976 68.1243C57.8233 69.0013 55.2071 68.0054 54.2707 65.8946C54.2112 65.7757 54.1815 65.6568 54.1369 65.5378H54.0923C54.1517 65.6568 54.1963 65.7905 54.2409 65.8946Z" fill="#393D5D"/>
<path d="M53.2301 65.5525C53.2301 65.5228 53.2152 65.5079 53.2152 65.4782C53.2152 65.4633 53.2152 65.4484 53.2004 65.4187C53.1855 65.4187 53.1706 65.4187 53.1558 65.4187C53.1706 65.4633 53.1855 65.5079 53.2004 65.5525H53.2152C53.2152 65.5525 53.2152 65.5525 53.2301 65.5525Z" fill="#393D5D"/>
<path d="M53.9438 65.4779C53.9884 65.4779 54.033 65.4631 54.0776 65.4631C54.0776 65.4928 54.0925 65.5077 54.1074 65.5374H54.152C54.1371 65.5077 54.1222 65.4631 54.1222 65.4333C54.1074 65.4333 54.0925 65.4333 54.0776 65.4333C54.0776 65.4482 54.0776 65.4482 54.0925 65.4631C54.033 65.4631 53.9884 65.4631 53.9438 65.4779Z" fill="#393D5D"/>
<path d="M53.4828 65.4486C53.3788 65.4486 53.2896 65.4338 53.1855 65.4041C53.1855 65.4189 53.1855 65.4338 53.2004 65.4635V65.4486C53.2896 65.4635 53.3937 65.4784 53.4828 65.4784C53.6166 65.4784 53.7653 65.4784 53.9436 65.4635C53.9882 65.4486 54.0328 65.4486 54.0774 65.4486C54.0774 65.4338 54.0774 65.4338 54.0626 65.4189C53.8693 65.4486 53.6612 65.4635 53.4828 65.4486Z" fill="#393D5D"/>
<path d="M30.2198 59.2798C28.6292 59.2798 27.1279 60.0379 26.1766 61.3014V59.473H26.1023C25.5969 59.473 25.1807 59.8892 25.1807 60.3946V68.2431C25.1807 68.7485 25.5969 69.1647 26.1023 69.1647H26.1766V64.2892C26.1915 62.3568 27.5739 60.6919 29.4765 60.35C29.9522 60.2609 30.2941 59.8446 30.2941 59.3541V59.2798H30.2198Z" fill="#393D5D"/>
<path d="M36.968 63.6203C37.4883 63.6203 37.9045 63.204 37.9045 62.6838V62.6095H33.787V58.5812V58.5068H33.7127C33.1924 58.5068 32.7762 58.923 32.7762 59.4433V62.6243H32.7168C32.2114 62.6243 31.7952 63.0405 31.7952 63.5459V63.6203H32.7762V64.3338C32.7762 67.1134 35.0356 69.3729 37.8302 69.3729H37.9045V69.2985C37.9045 68.808 37.5626 68.3918 37.087 68.3026C35.1694 67.9459 33.787 66.281 33.787 64.3338V63.6203H36.968Z" fill="#393D5D"/>
<path d="M70.5176 59.2798C68.9271 59.2798 67.4258 60.0379 66.4744 61.3014V59.473H66.4001C65.8947 59.473 65.4785 59.8892 65.4785 60.3946V68.2431C65.4785 68.7485 65.8947 69.1647 66.4001 69.1647H66.4744V64.2892C66.4893 62.3568 67.8717 60.6919 69.7744 60.35C70.25 60.2609 70.5919 59.8446 70.5919 59.3541V59.2798H70.5176Z" fill="#393D5D"/>
<path d="M76.8349 63.9326C75.3187 63.6502 73.8917 63.3975 73.8917 62.0448C73.8917 61.5097 74.1593 60.2462 76.6416 60.2462C77.37 60.2462 78.0538 60.3651 78.6632 60.6029C79.1389 60.7813 79.674 60.6178 79.9713 60.2165C79.1686 59.7111 77.8457 59.384 76.6416 59.384C74.3376 59.384 72.8363 60.4394 72.8363 62.0894C72.8363 64.1407 74.6795 64.4826 76.4633 64.7947C77.9349 65.0623 79.3173 65.3001 79.3173 66.5934C79.3173 67.4109 78.8267 68.3771 76.493 68.3771C75.5863 68.3771 74.6349 68.169 73.8174 67.7974C73.3566 67.5893 72.8215 67.7379 72.5242 68.1393C73.3863 68.8082 74.9174 69.2541 76.389 69.2541C78.8416 69.2541 80.3578 68.2136 80.3578 66.5488C80.3875 64.5866 78.574 64.2596 76.8349 63.9326Z" fill="#393D5D"/>
</svg>

<svg width="81" height="73" viewBox="0 0 81 73" fill="none" xmlns="http://www.w3.org/2000/svg"><path d="M57.273 23.397l-7.239 8.13a4.589 4.589 0 01-1.62 1.116h3.671c1.279 0 2.498-.52 3.345-1.427l7.224-8.102c.074-.074.164-.148.253-.208h-4.519c-.401 0-.773.149-1.055.431l-.06.06zm-24.749 2.497v27.41c0 1.056.862 1.918 1.917 1.918a1.922 1.922 0 001.918-1.918v-27.47c.015-.505.133-1.01.371-1.456a3.287 3.287 0 011.561-1.487h-2.735c-1.68 0-3.032 1.353-3.032 3.003z" fill="#393D5D"/><path d="M17.48 36.24c2.17 4.46 5.56 8.16 9.826 10.688v-3.211c0-.877-.386-1.71-1.04-2.274a21.407 21.407 0 01-7.448-16.218c0-5.723 2.26-11.089 6.348-15.147 4.087-4.043 9.483-6.258 15.206-6.198a21.19 21.19 0 0112.204 3.954 21.33 21.33 0 017.596 9.855 2.778 2.778 0 002.304-1.353c.505-.847.55-1.873.089-2.75-2.408-4.608-6.273-8.458-10.896-10.821A25.031 25.031 0 0040.194 0a26.93 26.93 0 00-4.46.386c-4.623.788-9.305 3.375-13.2 7.27-3.88 3.894-6.45 8.591-7.224 13.214-.877 5.321-.133 10.628 2.17 15.37z" fill="#393D5D"/><path d="M39.644 22.877c-1.1 0-2.096.58-2.616 1.53l6.808 6.809c.817.907 1.887 1.412 3.017 1.412.996 0 1.962-.372 2.72-1.07l-7.848-7.849a2.998 2.998 0 00-2.081-.832zm24.244.014a1.45 1.45 0 00-1.026.417l-.059.059-1.249 1.397v.461c0 10.346-7.372 19.19-17.54 21.019a2.982 2.982 0 00-2.453 2.943v1.219a25.091 25.091 0 0016.872-7.76 25.147 25.147 0 007.001-17.436c0-.282 0-.594-.015-.951-.074-.758-.743-1.368-1.53-1.368zM10.063 63.962c-.178-2.497-2.185-4.504-4.667-4.667a4.947 4.947 0 00-3.79 1.338A5.077 5.077 0 000 64.304v7.76c0 .505.416.921.922.921h.074v-5.648a5.013 5.013 0 004.043 2.021c1.397 0 2.735-.58 3.687-1.605a4.927 4.927 0 001.337-3.79zm-4.756 4.4a4.06 4.06 0 01-3.122-1.174 4.06 4.06 0 01-1.174-3.122 4.06 4.06 0 013.775-3.775c.09 0 .179-.015.253-.015 1.07 0 2.096.416 2.869 1.19a4.06 4.06 0 011.174 3.12 4.06 4.06 0 01-3.775 3.776zm17.361-4.042a5.03 5.03 0 00-1.605-3.687 4.947 4.947 0 00-3.79-1.338c-2.498.178-4.504 2.185-4.668 4.667a5.003 5.003 0 001.338 3.79 5.085 5.085 0 003.686 1.606c1.59 0 3.092-.758 4.043-2.021v1.828h.075a.926.926 0 00.921-.922V64.32zm-1.01.267a4.06 4.06 0 01-3.776 3.775 4.06 4.06 0 01-3.122-1.174 4.061 4.061 0 01-1.174-3.122 4.06 4.06 0 013.776-3.775c.089 0 .178-.015.252-.015a4.04 4.04 0 012.87 1.19 4.061 4.061 0 011.174 3.12zm28.822-.447c-.09-2.69-2.334-4.86-5.039-4.86-1.59 0-3.092.758-4.043 2.021v-1.813h-.075a.926.926 0 00-.921.922v7.833c0 .506.416.922.922.922h.074v-4.772c0-2.096 1.739-3.983 3.79-4.102 1.13-.075 2.2.312 3.018 1.085a4.015 4.015 0 011.278 2.943v4.846h.074a.926.926 0 00.922-.922v-4.102zm2.631 1.264c0 .03.015.06.015.09l.015.059h.015c-.015-.045-.03-.09-.045-.149zm9.841-2.141c-.535-2.452-2.735-4.117-5.262-3.954a5.06 5.06 0 00-4.698 4.668c-.03.476 0 .936.104 1.397l.06.015h.015c.03 0 .044.015.074.015.074.015.149.03.223.03.134 0 .282 0 .446-.015.045 0 .09-.015.119-.015h.074a4.205 4.205 0 01-.148-1.055c0-.194.014-.372.044-.565h8.518c.118 0 .237-.06.312-.149.119-.119.148-.253.119-.372zm-8.637-.505a4.02 4.02 0 013.717-2.468c1.635 0 3.091.967 3.716 2.468h-7.433zm-.415 2.795h-.016c-.074 0-.148.014-.208.014s-.089 0-.134.015h-.029a.84.84 0 00-.268-.044c.03.104.06.208.104.312.461 1.263 1.412 2.274 2.706 2.854a5.725 5.725 0 004.43.134 5.276 5.276 0 002.244-1.62.73.73 0 00.148-.625.787.787 0 00-.386-.535c-.476.936-1.308 1.665-2.349 2.051-2.289.877-4.935-.133-5.886-2.244-.045-.12-.104-.238-.149-.372h-.03c-.044.045-.103.045-.178.06z" fill="#393D5D"/><path d="M53.498 65.597h.03c.044 0 .074-.015.133-.015.06-.015.134-.015.208-.015h.015c.075-.015.134-.03.194-.03h.03c-.016-.03-.016-.044-.03-.074-.045 0-.09.015-.134.015-.015 0-.045.015-.06.015a1.01 1.01 0 00-.223.03c-.044 0-.089 0-.133.014a.987.987 0 00-.313-.044c0 .03.015.044.015.074a.55.55 0 01.268.03z" fill="#393D5D"/><path d="M53.646 65.508c.075-.015.149-.03.223-.03.015 0 .045-.015.06-.015-.179.015-.327.03-.461.015-.09 0-.178-.015-.283-.03v.015a.99.99 0 01.313.045h.148zm-.55-.148l.015.044c0-.015 0-.03-.015-.045z" fill="#393D5D"/><path d="M54.167 65.523h-.03l.134.357c.951 2.096 3.552 3.092 5.827 2.23 1.085-.417 1.888-1.175 2.348-2.082.461.253.595.833.283 1.234a5.457 5.457 0 01-2.26 1.635c-2.869 1.1-6.169-.253-7.18-3.017-.044-.104-.074-.223-.103-.327h-.045c.03.119.06.223.104.341.461 1.279 1.442 2.304 2.735 2.9a5.9 5.9 0 002.408.52 5.93 5.93 0 002.081-.387 5.4 5.4 0 002.275-1.635.768.768 0 00.163-.684c-.044-.253-.223-.476-.46-.61l-.03-.014-.015.03c-.461.936-1.294 1.664-2.32 2.05-2.258.863-4.845-.133-5.782-2.2a2.758 2.758 0 01-.163-.46l-.015-.03c0 .015.015.045.015.06l.03.089zm-.684-.104c-.075 0-.149-.015-.223-.03.089 0 .178.015.267.045.045 0 .075-.015.12-.015.059-.015.133-.015.222-.03.03 0 .045-.015.06-.015-.164.045-.313.045-.446.045z" fill="#393D5D"/><path d="M54.063 65.39c0 .014 0 .029.014.029h.045c.015.03.03.074.03.104h.03l-.03-.09c0-.014-.015-.044-.015-.059h-.03c-.015.015-.03.015-.044.015zm-.907.014h.044c0-.015 0-.03-.014-.045h-.015l-.06-.014c0 .014 0 .03.015.044v.015c.015.044.03.09.03.134h.044a.24.24 0 01-.044-.134z" fill="#393D5D"/><path d="M53.483 65.448c.193 0 .386-.014.594-.03 0-.014 0-.03-.015-.03-.044 0-.089.016-.119.016-.014 0-.044 0-.059.015a.898.898 0 00-.223.03c-.045 0-.09 0-.119.014a.843.843 0 00-.267-.044c-.03 0-.045-.015-.075-.015 0 .015 0 .03.015.044.074-.014.164 0 .268 0zm.757.447c.952 2.11 3.583 3.121 5.887 2.244a4.441 4.441 0 002.349-2.051.781.781 0 01.238 1.16 5.368 5.368 0 01-2.245 1.62 5.791 5.791 0 01-4.43-.134c-1.278-.58-2.244-1.606-2.705-2.854-.03-.104-.074-.208-.104-.312h-.045c.03.104.06.222.105.327.995 2.764 4.31 4.117 7.18 3.017a5.24 5.24 0 002.259-1.635c.327-.401.193-.981-.283-1.234-.46.907-1.263 1.665-2.348 2.081-2.275.877-4.89-.119-5.827-2.23-.06-.118-.09-.237-.134-.356h-.045c.06.119.104.252.149.357z" fill="#393D5D"/><path d="M53.23 65.552c0-.03-.015-.044-.015-.074 0-.015 0-.03-.015-.06h-.044l.044.134h.03zm.714-.074c.044 0 .089-.015.134-.015 0 .03.014.045.03.074h.044a.275.275 0 01-.03-.104h-.044c0 .015 0 .015.014.03-.059 0-.104 0-.148.015z" fill="#393D5D"/><path d="M53.483 65.449a1.02 1.02 0 01-.297-.045c0 .015 0 .03.014.06v-.015c.09.014.194.03.283.03.134 0 .282 0 .46-.016.045-.014.09-.014.134-.014 0-.015 0-.015-.014-.03-.194.03-.402.044-.58.03zM30.22 59.28c-1.59 0-3.092.758-4.043 2.021v-1.828h-.075a.926.926 0 00-.921.922v7.848c0 .506.416.922.921.922h.075v-4.876c.015-1.932 1.397-3.597 3.3-3.939.475-.09.817-.505.817-.996v-.074h-.074zm6.748 4.34c.52 0 .936-.416.936-.936v-.075h-4.117v-4.101h-.074a.933.933 0 00-.937.936v3.181h-.06a.926.926 0 00-.92.922v.074h.98v.714c0 2.78 2.26 5.039 5.054 5.039h.075v-.075c0-.49-.342-.906-.818-.995a4.032 4.032 0 01-3.3-3.97v-.713h3.181zm33.55-4.34a5.08 5.08 0 00-4.044 2.021v-1.828H66.4a.926.926 0 00-.922.922v7.848c0 .506.417.922.922.922h.074v-4.876c.015-1.932 1.398-3.597 3.3-3.939.476-.09.818-.505.818-.996v-.074h-.074zm6.317 4.653c-1.516-.283-2.943-.535-2.943-1.888 0-.535.267-1.799 2.75-1.799.728 0 1.412.12 2.021.357a1.137 1.137 0 001.308-.386c-.802-.506-2.125-.833-3.33-.833-2.303 0-3.805 1.055-3.805 2.705 0 2.052 1.844 2.394 3.627 2.706 1.472.267 2.854.505 2.854 1.798 0 .818-.49 1.784-2.824 1.784a6.61 6.61 0 01-2.676-.58 1.063 1.063 0 00-1.293.342c.862.67 2.393 1.115 3.865 1.115 2.453 0 3.969-1.04 3.969-2.705.03-1.962-1.784-2.29-3.523-2.616z" fill="#393D5D"/></svg>
